X:131
T:Berwick Jockey
O:No 131 Wm Clarke MS  Feltwell, Norfolk
I:abc2nwc
M:3/4
L:1/8
K:G
d2e/2d/2c/2B/2 e/2d/2c/2B/2|d2e/2d/2c/2B/2 dg|d2e/2d/2c/2B/2 e/2d/2c/2B/2|cA AB cd:|
|:dG Gd e/2d/2c/2B/2|dG GB dg|dG Gd e/2d/2c/2B/2|cA AB ce:|
|:g3/2a/2 gd Bd|g3/2a/2 gd gb|gb c'/2b/2a/2g/2 b/2a/2g/2f/2|ea aA ce:|

